packages/bezier-icons/icons/contact-filled.svg

<svg width="24" height="24" viewBox="0 0 24 24" fill="none" xmlns="http://www.w3.org/2000/svg">
<path fill-rule="evenodd" clip-rule="evenodd" d="M3.0055 7.00644C3.02364 5.65248 3.10152 4.84044 3.43597 4.18404C3.81947 3.43139 4.43139 2.81947 5.18404 2.43597C6.03969 2 7.15979 2 9.4 2H14.6C16.8402 2 17.9603 2 18.816 2.43597C19.5686 2.81947 20.1805 3.43139 20.564 4.18404C21 5.03969 21 6.15979 21 8.4V15.6C21 17.8402 21 18.9603 20.564 19.816C20.1805 20.5686 19.5686 21.1805 18.816 21.564C17.9603 22 16.8402 22 14.6 22H9.4C7.15979 22 6.03969 22 5.18404 21.564C4.43139 21.1805 3.81947 20.5686 3.43597 19.816C3.10152 19.1596 3.02364 18.3475 3.0055 16.9936C2.83899 16.9853 2.72041 16.9666 2.61732 16.9239C2.37229 16.8224 2.17761 16.6277 2.07612 16.3827C2 16.1989 2 15.9659 2 15.5C2 15.0341 2 14.8011 2.07612 14.6173C2.17761 14.3723 2.37229 14.1776 2.61732 14.0761C2.71927 14.0339 2.83637 14.0151 3 14.0067V9.99328C2.83637 9.98491 2.71927 9.96611 2.61732 9.92388C2.37229 9.82239 2.17761 9.62771 2.07612 9.38268C2 9.19891 2 8.96594 2 8.5C2 8.03406 2 7.80109 2.07612 7.61732C2.17761 7.37229 2.37229 7.17761 2.61732 7.07612C2.72041 7.03342 2.83899 7.01467 3.0055 7.00644ZM12 11.5C13.1046 11.5 14 10.6046 14 9.5C14 8.39543 13.1046 7.5 12 7.5C10.8954 7.5 10 8.39543 10 9.5C10 10.6046 10.8954 11.5 12 11.5ZM16.2144 17H7.786C7.62527 17 7.49027 16.865 7.50055 16.7056C7.65228 14.3513 9.60926 12.4907 12.0008 12.4907C14.3911 12.4907 16.3481 14.3513 16.4999 16.7056C16.5101 16.865 16.3751 17 16.2144 17Z" fill="#313234"/>
</svg>

<svg xmlns="http://www.w3.org/2000/svg" width="24" height="24" fill="none" viewBox="0 0 24 24"><path fill="#313234" fill-rule="evenodd" d="M3.006 7.006c.018-1.354.096-2.166.43-2.822a4 4 0 0 1 1.748-1.748C6.04 2 7.16 2 9.4 2h5.2c2.24 0 3.36 0 4.216.436a4 4 0 0 1 1.748 1.748C21 5.04 21 6.16 21 8.4v7.2c0 2.24 0 3.36-.436 4.216a4 4 0 0 1-1.748 1.748C17.96 22 16.84 22 14.6 22H9.4c-2.24 0-3.36 0-4.216-.436a4 4 0 0 1-1.748-1.748c-.334-.656-.412-1.468-.43-2.822a1.2 1.2 0 0 1-.389-.07 1 1 0 0 1-.54-.541C2 16.199 2 15.966 2 15.5s0-.699.076-.883a1 1 0 0 1 .541-.54c.102-.043.22-.062.383-.07V9.993a1.1 1.1 0 0 1-.383-.07 1 1 0 0 1-.54-.54C2 9.199 2 8.966 2 8.5s0-.699.076-.883a1 1 0 0 1 .541-.54c.103-.044.222-.062.389-.07M12 11.5a2 2 0 1 0 0-4 2 2 0 0 0 0 4m4.214 5.5H7.786a.284.284 0 0 1-.285-.294 4.51 4.51 0 0 1 8.999 0 .284.284 0 0 1-.286.294" clip-rule="evenodd"/></svg>
